Yaru++/apps/symbolic/vim-symbolic.svg

<svg height="16" width="16" xmlns="http://www.w3.org/2000/svg">
  <path d="m10.24835.8347-.209992.1981v.7281l.183118.1753h.976837v.7028l-6.4547483 6.1575v-6.8505h1.0718331l.2199914-.2079v-.7359l-.2024921-.1494h-5.64977929l-.18311785.1754v.7535l.18561775.1753h.98371159v12.6176l.1831178.1754h1.1155815l13.5319714-13.1353v-.5787l-.209992-.1981h-5.541658m-.0025-.0026" fill="#808080"/>
</svg>

<svg xmlns="http://www.w3.org/2000/svg" width="16" height="16" version="1.1">
 <path style="fill:#808080" d="M 10.24835,0.8347 10.038358,1.0328 V 1.7609 L 10.221476,1.9362 H 11.198313 V 2.639 L 4.7435647,8.7965 V 1.946 H 5.8153978 L 6.0353892,1.7381 V 1.0022 L 5.8328971,0.8528 H 0.18311781 L -3.987e-8,1.0282 V 1.7817 L 0.18561771,1.957 H 1.1693293 V 14.5746 L 1.3524471,14.75 H 2.4680286 L 16,1.6147 V 1.036 L 15.790008,0.8379 H 10.24835 M 10.24585,0.8353"/>
</svg>
